X:1
T: A Rosebud By My Early Walk
C:
R:Jig
Q:180
K:C
M:6/8
L:1/16
G,2|:C4D2 E4F2|G4c2 c2B2G2|A2B2c2 G2F2E2|D2E2C2 B,2A,2G,2|
C4D2 E4F2|G4c2 c2B2G2|A2B2c2 d2c2B2|1c6c4G,2:|2c6 c4d2|
e4e2 d2c2B2|c4c2 B4G2|A2B2c2 G2F2E2|D2E2C2 B,2A,2G,2|
e4e2 d2c2B2|c2d2c2 c2B2G2|A2B2c2 d2c2B2|1c6 c4d2:|c6 c4||
